!!!!SEGMENT: pl-wumfc--n28541--001-003_moniuszko-stanislaw--verbum-nobile-2-arioso.krn
!!!cenid: 18xx:4209
!!!COM: Moniuszko, Stanisław
!!!COM-rismID: pe30008351
!!!CDT: 1819/05/05-1872/06/04
!!!CNT: Polish
!!!OPR: Verbum nobile
!!!OTL: 2. Arioso
!!!OMV: 003
!!!PDT:
!!!AGN: Secular; Opera
!!!YEC: Copyright 2022 Narodowy Instytut Fryderyka Chopina (https://polishscores.org)
!!!YEM: License CC-BY-4.0 (https://creativecommons.org/licenses/by/4.0)
!!!SMS-siglum: PL-Wumfc
!!!SMS-shelfmark: N28541
!!!SMS-variant:
!!!SMS-altvar:
!!!SMS-shelfwork: 001-003 M
!!!NIFC-rismSourceID: 1001152972
!!!NIFC-rismChildID: 1001152972
!!!NIFC-islandoraID: pl-wumfc:3225
!!!URL-pdf-islandora: https://repozytorium.nifc.pl/islandora/object/pl-wumfc:3225/datastream/PDF/view
!!!URL-scan: https://polish.musicsources.pl/pl/lokalizacje/galeria/druki-muzyczne/12012/13 @EN{Scan on Polish Music Sources Website} @PL{Skany w portalu Dziedzictwo Muzyki Polskiej w otwartym dostępie}
!!!IIIF:
!!!ONB-nifc: Skany 0013-0014
!!!OMD: Andante. [quarter]=60.
!!!AIN: 1 barit 2 piano
!!!key: F
**kern	**kern	**dynam	**kern	**text
*part3	*part2	*	*part1	*
*staff3	*staff2	*	*staff1	*
*I"Piano.	*I"Piano.	*	*I"	*
*I'	*I'	*	*I'	*
*Ipiano	*Ipiano	*	*Ibarit	*
*ICklav	*ICklav	*	*ICvox	*
*clefF4	*clefG2	*	*clefG2	*
*	*	*	*ITrd8c12	*
*k[b-]	*k[b-]	*	*k[b-]	*
*F:	*F:	*	*F:	*
*M4/4	*M4/4	*	*M4/4	*
*met(c)	*met(c)	*	*met(c)	*
=1	=1	=1	=1	=1
*^	*	*	*	*
4r	1FF	8r	.	1r	.
.	.	8fL 8c 8A/	.	.	.
8r	.	8f 8c 8A/	.	.	.
(<8C/	.	8fJ 8c 8A/	.	.	.
8D/L	.	8fL 8c 8A/	.	.	.
8C/	.	8f 8c 8A/	.	.	.
8AA/	.	8f 8c 8A/	.	.	.
8C/J)	.	8fJ 8c 8A/	.	.	.
*v	*v	*	*	*	*
=2	=2	=2	=2	=2
!	!	!	!LO:TX:a:B:t=Serwacy.	!
2.F 2.FF/	8r	.	4..A/	Za-
.	8fL 8c 8A/	.	.	.
.	8f 8c 8A/	.	.	.
.	8fJ 8B- 8G/	.	.	.
.	.	.	16B-\	-nim
.	8fL 8A< 8F</	.	8.c\	te
.	8f 8c 8A</	.	.	.
.	.	.	16F/	znu-
4C 4CC/	8e 8c/	.	8.A/	-żo-
.	8gJ 8c 8B-/	.	.	.
.	.	.	16G/	-ne
=3	=3	=3	=3	=3
*^	*	*	*	*
4r	1FF	8r	.	4G/	o-
.	.	8fL 8c 8A/	.	.	.
8r	.	8f 8c 8A/	.	4F/	-czy
(<8C/	.	8fJ 8c 8A/	.	.	.
8D/L	.	8fL 8c 8A/	.	2r	.
8C/	.	8f 8c 8A/	.	.	.
8AA/	.	8f 8c 8A/	.	.	.
8C/J)	.	8fJ 8c 8A/	.	.	.
*v	*v	*	*	*	*
!!LO:LB:g=original
=4	=4	=4	=4	=4
2F 2FF/	8r	.	4..c\	wie-
.	8a 8fL 8c/	.	.	.
.	8a 8f 8c/	.	.	.
.	8a 8fJ 8c/	.	.	.
.	.	.	16d\	-ku-
4C 4CC/	8r	.	8.e\	-i-
.	8a 8e 8A/	.	.	.
.	.	.	16c\	-sty
4D 4DD/	8r	.	8A/	sen
.	8a 8f 8d 8A/	.	8d\	za-
=5	=5	=5	=5	=5
4.AA 4.AAA/	8r	.	4c\	-mro-
!	!LO:TX:b:i:t=dolce	!	!	!
.	8aL 8e 8c/	.	.	.
.	8a 8e 8c/	.	4c\	-czy
(8C/	8aJ 8e 8c/	.	.	.
8D/L	8aL 8f 8A/	.	4r	.
8C/	8a 8f 8A/	.	.	.
8AA/	8f 8c/	.	8r	.
8FF/J)	8fJ 8c 8A/	.	8c\	niech
=6	=6	=6	=6	=6
4.C 4.CC/	(8f/L	.	8.d\L	mo-
.	8e 8B- 8G/)	.	.	.
.	.	.	16c\Jk	.
.	8e 8B- 8G/	.	8B-/L	-dłów
8C/	8gJ 8e 8B-'/	.	8A/J	.
(<8F\L	8r	.	4.c\	głos
8E\	8cL 8B-< 8G<'>/	.	.	.
8D\)	8f 8B-< 8G<'>/	.	.	.
8C\J	8gJ 8e 8B-'>/	.	8c\	o
=7	=7	=7	=7	=7
4.F 4.FF/	8r	.	8.d\	dziec-
.	8aL 8f 8A/	.	.	.
.	.	.	16c\	-ka
.	8a 8f 8A/	.	8A/	me-
8c\	8aJ 8f/	.	8c\	-go
(8A\L	8r	.	4.f\	los
8G\	8fL 8c/	.	.	.
8F\	8f 8A/	.	.	.
8D\J)	8aJ 8f 8A/	.	8f\	w nie-
!!LO:LB:g=original
=8	=8	=8	=8	=8
(2C 2CC/	8r	.	4.e^\	-biań-
.	8aL 8e 8A/	.	.	.
.	8a 8e 8A/	.	.	.
.	8aJ 8e 8A/	.	8c\	-ski
2D 2DD/	8r	.	8.B-\	próg
.	8fL 8d 8B-/	.	.	.
.	.	.	16A/	przyj-
.	8f 8d 8B-/	.	8B-\	-mu-
.	8fJ 8d 8B-/	.	8d\	-je
=9	=9	=9	=9	=9
4E 4EE/	8r	.	4.c\	Bóg,
.	8g 8c 8G/	.	.	.
4F#X 4FF#X/	8r	.	.	.
.	8d 8c 8A/	.	8A/	u-
4G 4GG/	8r	.	8.B-/	-sta-
.	8d 8B- 8G/	.	.	.
.	.	.	16A/	-li
4BB-/	8r	.	8B-/	przy-
.	8g 8d-X 8B-/	.	8G/	-szłość
=10	=10	=10	=10	=10
4C/)	4c 4A/	.	8F/	jej,
.	.	.	16r	.
.	.	.	16G/	a
4r	4r	.	8.A/	sta-
.	.	.	16d\	-ry
4r	4r	.	[4c;\	oj-
*	*	*	*Xbrackettup	*
!	!	!	!LO:TUP:a:problem:klamra łukowa	!
4C;/	(4e 4c (4G;/	.	24c\LL]	.
.	.	.	24B-\JJ	.
.	.	.	24A\LL	-ciec
.	.	.	24c\JJ	.
.	.	.	24.B-;\	sko-
.	.	.	48G/	-na
!!LO:PB:g=original
=11	=11	=11	=11	=11
[2.F [2.FF/	8f 8A/))	.	4F/	lżej.
.	8ffL 8cc 8a\	.	.	.
.	8dd 8cc-X 8a-X\	.	4r	.
.	8ee-XJ 8b- 8g\	.	.	.
.	8bnL 8a- 8f/	.	2r	.
.	8ccn 8g 8en/	.	.	.
8F]L 8FF/]	8g#X 8f 8d/	.	.	.
8F#XJ 8FF#X/	8anJ 8e-X 8c/	.	.	.
=12	=12	=12	=12	=12
(2G 2GG/	8r	.	4..d\	Za-
.	8b-L 8d 8B-/	.	.	.
.	8b- 8d 8B-/	.	.	.
.	8b-J 8d 8B-/	.	.	.
.	.	.	16c#X\	-nim
8BB-/)	8r	.	8.d\	te
8r	8g 8d/	.	.	.
.	.	.	16B-\	znu-
.	.	.	8qB-/	.
8G 8GG/	8r	.	8.A/	-żo-
8r	8b- 8g 8d/	.	.	.
.	.	.	16G/	-ne
=13	=13	=13	=13	=13
1D 1DD	8a 8f'/	.	(4.A/	o-
.	(8aaL 8ff 8dd 8a\	f>	.	.
.	8ee 8cc#X 8b- 8g\	.	.	.
.	.	.	8qc/	.
.	8ffJ 8dd 8a 8f\	.	8B-/)	.
.	8cc#L 8b- 8g 8e/	.	8A/	-czy
.	8ddJ 8a 8f 8d/	.	8r	.
.	8g#XL 8f 8d 8B-/	.	4r	.
.	8aJ 8f 8d 8A/)	]	.	.
!!LO:LB:g=original
=14	=14	=14	=14	=14
(2B- (2BB-\	8r	p	4..d\	wie-
.	8ddL 8g 8d/	.	.	.
.	8dd 8g 8d/	.	.	.
.	8ddJ 8g 8d/	.	.	.
.	.	.	16c#X\	-ku-
8G 8GG\))	8r	.	8.e\	-i-
8r	8b- 8g 8d/	.	.	.
.	.	.	16d\	-sty
!	!	!	!LO:TUP:a	!
4E\	8r	.	12d\L	sen
.	.	.	12c\J	.
.	8b- 8g 8d/	.	.	.
.	.	.	12B-\	za-
=15	=15	=15	=15	=15
(32CC#X/LLL	(32aLLL 32g/	pp	8A/	-mro-
32C#X/	32e/	.	.	.
32CC#/	32a 32g/	.	.	.
32C#/JJJ	32e/JJJ	.	.	.
16CC#/)	16a 16g/)	.	8A/	-czy
16r	16r	.	.	.
(32DD/LLL	(32aLLL 32f/	.	4r	.
32D/	32d/	.	.	.
32DD/	32a 32f/	.	.	.
32D/JJJ	32d/JJJ	.	.	.
!	!LO:TX:b:i:t=cre-scen-do:ext=ud:problem:text with extention lines	!	!	!
16DD/)	16a 16f/)	<	.	.
16r	16r	.	.	.
(32EE/LLL	(32aLLL 32g/	.	8.r	.
32E/	32c#X/	.	.	.
32EE/	32a 32g/	.	.	.
32E/JJJ	32c#/JJJ	.	.	.
16EE/)	16a 16g/)	.	.	.
16r	16r	.	16c#X\	niech
(32FF/LLL	(32aLLL 32f/	.	8.d\	mod-
32F/	32A/	.	.	.
32FF/	32a 32f/	.	.	.
32F/JJJ	32A/JJJ	.	.	.
16FF/)	16a 16d/)	.	.	.
16r	16r	.	16A/	-łów
!!LO:LB:g=original
=16	=16	=16	=16	=16
(32FF#X/LLL	(32ccnLLL 32a/	.	4cnX\	głos
32F#X/	32d#X/	.	.	.
32FF#/	32cc 32a/	.	.	.
32F#/JJJ	32d#/JJJ	.	.	.
16FF#/)	16cc 16a/)	.	.	.
16r	16r	.	.	.
(32GG/LLL	(32eeLLL 32e/	.	4r	.
32G/	32g/	.	.	.
32GG/	32ee 32cc/	.	.	.
32G/JJJ	32g/JJJ	.	.	.
16GG/)	16ee 16cc/)	.	.	.
16r	16r	.	.	.
(32AA\LLL	(32ddnLLL 32cc/	.	8r	.
32A\	32f#X/	.	.	.
32AA\	32dd 32cc/	.	.	.
32A\JJJ	32f#/JJJ	.	.	.
16AA/)	16dd 16cc/)	.	8c\	o
16r	16r	.	.	.
(32BBn\LLL	(32gLLL 32fn/	.	8.d\	dzie-
32Bn\	32d#/	.	.	.
32BB\	32g 32f/	.	.	.
32B\JJJ	32d#/JJJ	.	.	.
16BB/)	16g 16f/)	[[	.	.
16r	16r	.	16G/	-cka
=17	=17	=17	=17	=17
[<1C [1CC	8r	fp	[1c	los_
.	8cL 8G< 8E</	.	.	.
!	!LO:TX:t=P:problem:widełki na pięciolinii	!	!	!
.	8d 8c 8F</	<	.	.
.	8eJ 8c 8G</	.	.	.
.	8fL 8c 8A</	.	.	.
.	8g 8f 8B-/	.	.	.
.	8a 8f 8c/	.	.	.
.	8qcc/	.	.	.
.	8b-J 8f 8d/	[[	.	.
!!LO:LB:g=original
=18	=18	=18	=18	=18
(2C] (2CC/]	8g 8e 8c/	fp	16c\]	.
.	.	.	16r	.
.	8r	.	8G/	do-
.	4r	.	8A/	-bie-
.	.	.	8B-\	-ga
(2BB- (2BBB-/))	([2cc 2g 2e/	.	8c\	tam
.	.	.	8c\	do
.	.	.	8d\	nie-
.	.	.	8e\	-bios
=19	=19	=19	=19	=19
!	!	!	!LO:TX:t=P:problem:nie wyświetla się linia w spinie "text"	!
(2AA (2AAA/))	8cc] 8f/)	.	(2.f\	bram_
.	8fL 8c'/	.	.	.
.	8fJ 8c'/	.	.	.
.	8cc 8f 8c'/	.	.	.
8BB- 8BBB-/))	(8ee-X/L	>	.	.
8d-XL 8B-\	8dd-X/	.	.	.
  8d-J 8B-\	8b-/	.	8d-X\)	-!
(8D-X\	8g/J)	]	8B-\	niech
=20	=20	=20	=20	=20
*	*^	*	*	*
2C 2CC/)	[2cc/	8rc	.	4..A/	Bóg
.	.	8aL 8f 8c\	.	.	.
.	.	8a 8f 8c\	.	.	.
.	.	8aJ 8f 8c\	.	.	.
.	.	.	.	16B-\	u-
8C/	8cc/L]	2rcyy	.	8.c\	-sta-
8r	8ccJ 8a 8f 8c/	.	.	.	.
.	.	.	.	16F/	-li
8C/	8r	.	.	8A/	przy-
8r	8g 8e 8c 8B-/	.	.	8G/	-szłość
*	*v	*v	*	*	*
!!LO:PB:g=original
=21	=21	=21	=21	=21
8r	8r	.	8F/	jej
8FL 8E-X'<\	8fL 8c 8A<'>/	.	8r	.
8F 8D-X'<\	8f 8B-'>/	.	(4.f\	bło-
8FJ 8C'<\	8fJ 8e-X 8A<'>/	.	.	.
2F 2BB-\	2f 2d-X 2B-^/	.	.	.
.	.	.	8c\)	-gą
.	.	.	8.e-X^\	przy-
.	.	.	16d-X\	-szłość
=22	=22	=22	=22	=22
8.r	8.r	.	4d-X\	jej
16BB- 16BBB-\	16en 16d-X 16G</	.	.	.
[<2BB- [2BBB-\	[2e [2d- [>2G</	.	8r	.
.	.	.	8d-\	o
.	.	.	8e-X\L	sta-
.	.	.	8d-\J	.
8BB-] 8BBB-\]	8e] 8d-] 8G</]	.	8B-\	-ry
8rDD	8r	.	8G/	jej
=23	=23	=23	=23	=23
8.rDD	8.r	.	8F/	oj-
.	.	.	8EnX/	-ciec,
!	!	!LO:DY:b:rj	!	!
16BB- 16BBB-\	16e 16d-X 16G</	f	.	.
8C 8CC\	8e 8c 8G</	.	8r	.
8rDD	8r	.	8c\	a
2r	2r	.	8.enX\	oj-
.	.	.	16dnX\	-ciec
.	.	.	8B-\	sko-
.	.	.	8G/	-na
!!LO:LB:g=original
=24	=24	=24	=24	=24
8.r	8.r	.	4E/	lżej,
16D-X 16DD-X\	16e 16B- 16G</	.	.	.
4C 4CC\	4e 4c 4G</	.	8r	.
.	.	.	8C/	niech
2r	2r	.	8.D/	li-
.	.	.	16E/	-to-
.	.	.	8F/	-ści-
.	.	.	8G/	-wy
=25	=25	=25	=25	=25
4r	4r	.	8.A/	Bóg
.	.	.	16B-/	u-
(4F\	(>4f 4c 4A/	.	8c\	-sta-
.	.	.	8F/	-li
4AA/	4e 4c 4A/	.	4.A/	przy-
4C/)	4e-X 4c [4G/	.	.	.
.	.	.	8G/	-szłość
=26	=26	=26	=26	=26
!	!LO:TX:t=P:problem:klopot z wyświetleniem ligatury	!	!	!
8.rGG	8dL 8B- 8G</])	.	4G/	jej,
.	16ra	.	.	.
16D 16GG\	16gJk 16B- 16G</	.	.	.
8G 8D 8GG\	8b- 8d 8B-/	.	8r	.
8r	8r	.	8B-\	a
2r	2r	.	8.c\	oj-
.	.	.	16B-\	-ciéc
.	.	.	8A/	sko-
.	.	.	8G/	-na
!!LO:LB:g=original
=27	=27	=27	=27	=27
8.r	8.r	.	4F#X/	lżej
!	!	!LO:DY:b:t=più %s	!	!
16A 16AA\	16f#X 16c/	f	.	.
4A 4AA^^\	4f# 4c^^/	.	8r	.
.	.	.	8e-X\	niech
2r	2r	.	8.d\	li-
.	.	.	16c\	-to-
.	.	.	8B-\	-ści-
.	.	.	8A/	-wy
=28	=28	=28	=28	=28
8.r	8.r	.	4c\	Bóg
(64BB-/LLLL	16g 16e 16c/	ff	.	.
64AA/	.	.	.	.
64GG/	.	.	.	.
64FF/JJJJ	.	.	.	.
8EE/)	8cc 8g 8c/	.	8r	.
8r	8r	.	8C/	u-
2r	2r	.	8D/	-sta-
.	.	.	8E/	-li
.	.	.	8F/	przy-
.	.	.	8G/	-szłość
=29	=29	=29	=29	=29
4r	4r	.	8.A/	jej
.	.	.	16c\	a
&(<4BB-/	(>4b- 4f 4d/	pp	8.f\	sta-
.	.	.	16d\	-ry
[4C/	4a 4f 4c/	.	[4c;\	oj-
!	!	!	!LO:TUP:a:problem:klamra łukowa	!
4C] 4CC;/	4g 4e 4B-;/	.	24c\LL]	.
.	.	.	24B-\JJ	.
.	.	.	24A\LL	-ciec
.	.	.	24c\JJ	.
.	.	.	24.B-;\	sko-
.	.	.	48G/	-na
!!LO:LB:g=original
=30	=30	=30	=30	=30
*^	*	*	*	*
!	!LO:TX:t=P:problem:brak zakończenia łuku	!	!	!	!
(>4..C^>/	1FF&)	8fL 8c 8A'/)	.	[2F/	lżej_
.	.	8f 8c 8A'/	.	.	.
.	.	8f 8c 8A'/	.	.	.
.	.	8fJ 8c 8A'/	.	.	.
16D-X/)	.	.	.	.	.
8.E-X\L	.	8fL 8c 8A</	.	8F/]	.
.	.	8f 8c 8A< 8F</	.	8r	.
16C\K	.	.	.	.	.
8D-\	.	8f 8B- 8F</	.	4r	.
8BB-\J	.	8fJ 8d-X 8F</	.	.	.
=31	=31	=31	=31	=31	=31
*	*^	*^	*	*	*
2ryy]	2ryy]	8AAL 8FF'\	8.f/L	2c\	.	1r	.
.	.	(8C\	.	.	.	.	.
.	.	.	16g/Jk	.	.	.	.
.	.	8F\)	8.a/L	.	.	.	.
.	.	8AA'\J	.	.	.	.	.
.	.	.	16f/Jk	.	.	.	.
8.rA	8.rEEyy	2C\	[>2c/	2rcyy	.	.	.
16A/	16F\	.	.	.	.	.	.
*	*Xtuplet	*	*	*	*	*	*
24G/LL	24E\LL	.	.	.	.	.	.
24B-/	24G\	.	.	.	.	.	.
24A/JJ	24F\JJ	.	.	.	.	.	.
24G/LL	24E\LL	.	.	.	.	.	.
24A/	24F\	.	.	.	.	.	.
24B-/JJ	24G\JJ	.	.	.	.	.	.
*v	*v	*v	*	*	*	*	*
*	*v	*v	*	*	*
=32	=32	=32	=32	=32
*ped	*	*	*	*
8.F\L	4..c] 4..A</	.	1r	.
16FF\Jk	.	.	.	.
[<2.FF\	.	.	.	.
.	16c 16A< 16F</	.	.	.
!	!	!LO:HP:a	!	!
.	8cL 8A< 8F<'>/	>	.	.
.	8c 8A< 8F<'>/	.	.	.
.	8c 8A< 8F<'>/	.	.	.
.	8cJ 8A< 8F<'>/	]	.	.
=33	=33	=33	=33	=33
1FF] 1FFF;	1f 1c 1A;	.	1r;	.
==	==	==	==	==
*-	*-	*-	*-	*-
!!!system-decoration: s1{(s2,s3)}
!!!RDF**kern: > = above
!!!RDF**kern: < = below
!!!RDF**kern: N = linked
!!!ENC: Mateusz Solarz
!!!END: 2022-09-26
!!!ENC: Katarzyna Serwa
!!!END: 2022-10-31
